icons/Logos/flutter-fill.svg

<svg viewBox="0 0 24 24" xmlns="http://www.w3.org/2000/svg"><path d="M13.5039 2.00098L3.50391 12.001L6.58724 15.0843L19.6673 2.00098H13.5039ZM13.4985 11.1989L8.12328 16.6199L13.4956 21.9998H19.6842L14.2975 16.5999L19.6856 11.1998L13.4985 11.1989Z"/></svg>

<svg xmlns="http://www.w3.org/2000/svg" viewBox="0 0 24 24">
    <g>
        <path fill="none" d="M0 0h24v24H0z"/>
        <path fill-rule="nonzero" d="M13.503 2.001l-10 10 3.083 3.083 13.08-13.083h-6.163zm-.006 9.198L8.122 16.62 13.494 22h6.189l-5.387-5.4 5.389-5.4h-6.188z"/>
    </g>
</svg>
